X: 1473
T: Andie Phaddie's
R: reel
M: 4/4
K: Adorian
AG||E2AB c2BA|GBdc BGG2|EAAB c2BA|GBdB BAAG|
E2AB c2BA|GBdc BGAG|(3EFG AB cABA|GBdB BAAA||
a3g edBe|dBgd BGG2|A2ag edBe|dBgB BAA2|
abag edBe|dBgd BGAG|(3EFG AB c2BA|GBdB BABG||

